packages/design-assets/icons/16px/List.svg

<?xml version="1.0" encoding="UTF-8"?>
<svg width="16px" height="16px" viewBox="0 0 16 16" version="1.1" xmlns="http://www.w3.org/2000/svg" xmlns:xlink="http://www.w3.org/1999/xlink">
    <!-- Generator: Sketch 54.1 (76490) - https://sketchapp.com -->
    <title>Icons/16px/List</title>
    <desc>Created with Sketch.</desc>
    <g id="Icons/16px/List" stroke="none" stroke-width="1" fill="none" fill-rule="evenodd">
        <path d="M15,7 L5,7 L5,5 L15,5 C15.552,5 16,5.448 16,6 C16,6.552 15.552,7 15,7 Z M15,11 L5,11 L5,9 L15,9 C15.552,9 16,9.448 16,10 C16,10.552 15.552,11 15,11 Z M15,15 L5,15 L5,13 L15,13 C15.552,13 16,13.448 16,14 C16,14.552 15.552,15 15,15 Z M15,3 L5,3 L5,1 L15,1 C15.552,1 16,1.448 16,2 C16,2.552 15.552,3 15,3 Z M3,7 L1,7 C0.448,7 0,6.552 0,6 C0,5.448 0.448,5 1,5 L3,5 L3,7 Z M3,11 L1,11 C0.448,11 0,10.552 0,10 C0,9.448 0.448,9 1,9 L3,9 L3,11 Z M3,15 L1,15 C0.448,15 0,14.552 0,14 C0,13.448 0.448,13 1,13 L3,13 L3,15 Z M3,3 L1,3 C0.448,3 0,2.552 0,2 C0,1.448 0.448,1 1,1 L3,1 L3,3 Z" id="i-16-list" fill="#818F99"></path>
    </g>
</svg>

<svg width="16" height="16" xmlns="http://www.w3.org/2000/svg"><path d="M15 7H5V5h10a1 1 0 0 1 0 2zm0 4H5V9h10a1 1 0 0 1 0 2zm0 4H5v-2h10a1 1 0 0 1 0 2zm0-12H5V1h10a1 1 0 0 1 0 2zM3 7H1a1 1 0 0 1 0-2h2v2zm0 4H1a1 1 0 0 1 0-2h2v2zm0 4H1a1 1 0 0 1 0-2h2v2zM3 3H1a1 1 0 0 1 0-2h2v2z" fill="#818F99" fill-rule="evenodd"/></svg>
